assets/icons/favicon.svg

<svg width="29" height="30" viewBox="0 0 29 30" fill="none" xmlns="http://www.w3.org/2000/svg">
    <path
        d="M0 0.499878H29V15.0848C29 18.8237 27.0054 22.2787 23.7676 24.1484L14.5 29.4999L5.23246 24.1484C1.99458 22.2787 3.32377e-06 18.8237 3.32377e-06 15.0848L0 0.499878Z"
        fill="#FFDD2D" />
    <path fill-rule="evenodd" clip-rule="evenodd"
        d="M8 8.49988V13.0584C8.61641 12.3545 9.73715 11.8781 11.0186 11.8781H12.4111V17.1773C12.4111 18.5871 12.0323 19.8211 11.4703 20.4999H17.5276C16.9667 19.8204 16.5888 18.588 16.5888 17.18V11.8781H17.9814C19.2628 11.8781 20.3836 12.3545 21 13.0584V8.49988C21 8.49988 8 8.49988 8 8.49988Z"
        fill="#333333" />
</svg>

<svg width="29" height="30" viewBox="0 0 29 30" fill="none" xmlns="http://www.w3.org/2000/svg"><path d="M0 .5h29v14.585c0 3.739-1.995 7.194-5.232 9.063L14.5 29.5l-9.268-5.352A10.466 10.466 0 0 1 0 15.085V.5z" fill="#FFDD2D"/><path fill-rule="evenodd" clip-rule="evenodd" d="M8 8.5v4.558c.616-.703 1.737-1.18 3.019-1.18h1.391v5.3c.001 1.41-.378 2.643-.94 3.322h6.058c-.561-.68-.94-1.912-.94-3.32v-5.302h1.393c1.283 0 2.404.476 3.02 1.18V8.5H8z" fill="#333333"/></svg>
